X: 1
T: Sendai Dancers
C: James Gray
R: air, march
B: Alex & James Gray "Tweeddale Collection" v.4 p.51 #4,7
N: Tune for "Hana" by Alex Gray
Z: 2017 John Chambers <jc:trillian.mit.edu>
M: C
L: 1/8
K: Em
A2 |\
"Em"G2FG E2e2 | g3f e2fe | "D"dBAG F3E | F3E D2EF |
"G"G3A B2AG | "D"A3B "Bm"d2ef | "Em"gedB "Bm"dBAG | "Bm"F3G "Em"E2 ||
ED |\
"C"E3D "/e"C2E2 | "G"G3A "/b"G2AG | "D"F3E "/f#"EFGA | "Bm"d3e "/d"f2ga |
"Em"g3fe "/G"edBA | "Em"G3F "C"E2FE | "D"DEFA "Bm"defA | "Bm"F3G "Em"E2 |]
